X:81
T: RODEN RODEN EICHHON
N: K1624
O: Europa, Mitteleuropa, Deutschland, Koeln
R: Kinder -, Ansinge - Lied, Bettel - Reim
M: 2/4
L: 1/16
K: F
 | G2G2F2A2 | G4F2z2 |
G2G2F2AA | G4F2z2 |
G2G2G4 | G2G2G4 |
G2G2G2G2 | G4G2z2 |
G4G4 | G2G2G4 |
G2GGG2G2 | G2G2G4 |
G4(3F2G2A2 | G4z4 |
G4(3F2G2A2 | G4z2
A2 | G2G2F2A2 | G2G2F2
A2 | G2G2F2A2 | G4F2
A2 | G4F2A2 | G4F2z2

@@@ Tune index: 7418
